images/antv2.svg

<svg height="250" viewBox="0 0 250 250" width="250" xmlns="http://www.w3.org/2000/svg" xmlns:xlink="http://www.w3.org/1999/xlink"><linearGradient id="a" gradientTransform="scale(.641026 .639386)" gradientUnits="userSpaceOnUse" x1="126.300003" x2="338.299988" y1="41.799999" y2="318.899994"><stop offset="0" stop-color="#00efff"/><stop offset="1" stop-color="#00b3ec"/></linearGradient><path d="m249.9375 124.746094c0 68.890625-55.9375 124.742187-124.9375 124.742187s-124.9375-55.851562-124.9375-124.742187c0-68.894532 55.9375-124.746094 124.9375-124.746094s124.9375 55.851562 124.9375 124.746094zm0 0" fill="url(#a)"/><path d="m222.691406 116.496094c.835938-17.964844-11.730468-29.921875-25.898437-38.105469l-9.230469 54.089844c6.410156-.320313 9.488281 2.046875 10.644531 3.199219 1.410157 1.46875 4.933594 5.753906.640625 12.464843 8.972656-1.40625 22.753906-9.972656 23.84375-31.648437zm0 0" fill="#9bf9ff"/><g fill-rule="evenodd"><path d="m101.667969 53.515625-10.960938-11.058594c16.535157-1.984375 60.253907.636719 102.5 27.042969.703125 2.878906 0 7.164062 0 7.164062l3.523438 1.726563c3.078125 4.410156 8.332031 16.878906 4.617187 31.710937-3.65625 14.769532-10.066406 21.101563-12.757812 22.378907-5.707032 0-15.320313 3.324219-18.460938 17.839843-3.078125 14.511719-9.101562 17.644532-11.667968 17.390626l-62.433594.703124-41.15625-24.167968-6.023438-50.191406 11.664063-15.664063 20.960937-17.007813 14.875-6.011718 5.320313-1.789063zm73.714843 20.71875c-1.738281 1.851563-3.777343 3.40625-6.023437 4.601563-16.027344-3.386719-21.859375-11.699219-21.859375-11.699219 15.128906-.128907 28.847656 3.515625 38.847656 9.589843 0 0-5.386718-1.789062-10.898437-2.558593zm0 0" fill="#fdffff"/><path d="m170.0625 150.253906c-11.917969 5.710938-24.980469 8.644532-38.203125 8.570313-39.488281 0-71.539063-24.679688-71.539063-55.179688 0-22.507812 17.5-41.816406 42.5625-50.449219-47.753906 2.75-85.960937 40.859376-85.960937 87.851563 0 54.285156 48.589844 99.105469 108.527344 99.105469 44.742187 0 82.050781-25.832032 101.539062-60.421875-26.859375 6.011719-58.589843-5.371094-56.925781-29.410157zm0 0" fill="#a0f9ff"/></g></svg>

<svg xmlns="http://www.w3.org/2000/svg" xmlns:xlink="http://www.w3.org/1999/xlink" width="250px" height="250px" viewBox="0 0 250 250" version="1.1">
<defs>
<linearGradient id="linear0" gradientUnits="userSpaceOnUse" x1="126.300003" y1="41.799999" x2="338.299988" y2="318.899994" gradientTransform="matrix(0.641026,0,0,0.639386,0,0)">
<stop offset="0" style="stop-color:rgb(0%,93.725491%,100%);stop-opacity:1;"/>
<stop offset="1" style="stop-color:rgb(0%,70.19608%,92.54902%);stop-opacity:1;"/>
</linearGradient>
</defs>
<g id="surface1">
<path style=" stroke:none;fill-rule:nonzero;fill:url(#linear0);" d="M 249.9375 124.746094 C 249.9375 193.636719 194 249.488281 125 249.488281 C 56 249.488281 0.0625 193.636719 0.0625 124.746094 C 0.0625 55.851562 56 0 125 0 C 194 0 249.9375 55.851562 249.9375 124.746094 Z M 249.9375 124.746094 "/>
<path style=" stroke:none;fill-rule:nonzero;fill:rgb(60.784316%,97.647059%,100%);fill-opacity:1;" d="M 222.691406 116.496094 C 223.527344 98.53125 210.960938 86.574219 196.792969 78.390625 L 187.5625 132.480469 C 193.972656 132.160156 197.050781 134.527344 198.207031 135.679688 C 199.617188 137.148438 203.140625 141.433594 198.847656 148.144531 C 207.820312 146.738281 221.601562 138.171875 222.691406 116.496094 Z M 222.691406 116.496094 "/>
<path style=" stroke:none;fill-rule:evenodd;fill:rgb(99.215686%,100%,100%);fill-opacity:1;" d="M 101.667969 53.515625 L 90.707031 42.457031 C 107.242188 40.472656 150.960938 43.09375 193.207031 69.5 C 193.910156 72.378906 193.207031 76.664062 193.207031 76.664062 L 196.730469 78.390625 C 199.808594 82.800781 205.0625 95.269531 201.347656 110.101562 C 197.691406 124.871094 191.28125 131.203125 188.589844 132.480469 C 182.882812 132.480469 173.269531 135.804688 170.128906 150.320312 C 167.050781 164.832031 161.027344 167.964844 158.460938 167.710938 L 96.027344 168.414062 L 54.871094 144.246094 L 48.847656 94.054688 L 60.511719 78.390625 L 81.472656 61.382812 L 96.347656 55.371094 L 101.667969 53.582031 Z M 175.382812 74.234375 C 173.644531 76.085938 171.605469 77.640625 169.359375 78.835938 C 153.332031 75.449219 147.5 67.136719 147.5 67.136719 C 162.628906 67.007812 176.347656 70.652344 186.347656 76.726562 C 186.347656 76.726562 180.960938 74.9375 175.449219 74.167969 Z M 175.382812 74.234375 "/>
<path style=" stroke:none;fill-rule:evenodd;fill:rgb(62.7451%,97.647059%,100%);fill-opacity:1;" d="M 170.0625 150.253906 C 158.144531 155.964844 145.082031 158.898438 131.859375 158.824219 C 92.371094 158.824219 60.320312 134.144531 60.320312 103.644531 C 60.320312 81.136719 77.820312 61.828125 102.882812 53.195312 C 55.128906 55.945312 16.921875 94.054688 16.921875 141.046875 C 16.921875 195.332031 65.511719 240.152344 125.449219 240.152344 C 170.191406 240.152344 207.5 214.320312 226.988281 179.730469 C 200.128906 185.742188 168.398438 174.359375 170.0625 150.320312 Z M 170.0625 150.253906 "/>
</g>
</svg>
